src/qr-scanner.svg

<?xml version="1.0" encoding="utf-8"?>
<!-- Generated by IcoMoon.io -->
<!DOCTYPE svg PUBLIC "-//W3C//DTD SVG 1.1//EN" "http://www.w3.org/Graphics/SVG/1.1/DTD/svg11.dtd">
<svg version="1.1" xmlns="http://www.w3.org/2000/svg" xmlns:xlink="http://www.w3.org/1999/xlink" width="512" height="512" viewBox="0 0 512 512">
<path fill="#000000" d="M96 124.171c0-6.938 5.232-12.171 12.171-12.171h67.829v-48h-66.829c-33.454 0-61.171 26.717-61.171 60.171v67.829h48v-67.829z"></path>
<path fill="#000000" d="M403.579 64h-67.579v48h67.219c6.938 0 12.781 5.232 12.781 12.171v67.829h48v-67.829c0-33.454-26.967-60.171-60.421-60.171z"></path>
<path fill="#000000" d="M416 386.829c0 6.938-5.232 12.171-12.171 12.171h-67.829v49h67.829c33.454 0 60.171-27.717 60.171-61.171v-66.829h-48v66.829z"></path>
<path fill="#000000" d="M108.171 399c-6.939 0-12.171-5.232-12.171-12.171v-66.829h-48v66.829c0 33.454 27.717 61.171 61.171 61.171h66.829v-49h-67.829z"></path>
</svg>

<?xml version="1.0" encoding="utf-8"?>
<!-- Generator: Adobe Illustrator 16.2.1, SVG Export Plug-In . SVG Version: 6.00 Build 0)  -->
<!DOCTYPE svg PUBLIC "-//W3C//DTD SVG 1.1//EN" "http://www.w3.org/Graphics/SVG/1.1/DTD/svg11.dtd">
<svg version="1.1" id="Layer_1" xmlns="http://www.w3.org/2000/svg" xmlns:xlink="http://www.w3.org/1999/xlink" x="0px" y="0px"
	 width="512px" height="512px" viewBox="0 0 512 512" enable-background="new 0 0 512 512" xml:space="preserve">
<g>
	<path d="M96,124.171c0-6.938,5.232-12.171,12.171-12.171H176V64h-66.829C75.717,64,48,90.717,48,124.171V192h48V124.171z"/>
	<path d="M403.579,64H336v48h67.219c6.938,0,12.781,5.232,12.781,12.171V192h48v-67.829C464,90.717,437.033,64,403.579,64z"/>
	<path d="M416,386.829c0,6.938-5.232,12.171-12.171,12.171H336v49h67.829C437.283,448,464,420.283,464,386.829V320h-48V386.829z"/>
	<path d="M108.171,399C101.232,399,96,393.768,96,386.829V320H48v66.829C48,420.283,75.717,448,109.171,448H176v-49H108.171z"/>
</g>
</svg>
